X:1
T:James Gibb editions
T:Little beam of rosy light - Barnby
%%score [ ( 1 2 ) ( 3 4 ) ] { ( 5 6 ) | ( 7 8 ) }
L:1/8
Q:1/4=178
M:3/2
K:F
V:1 treble nm="Midi_74"
V:2 treble 
V:3 bass nm="Midi_74"
V:4 bass 
V:5 treble nm="Midi_20"
V:6 treble 
V:7 bass 
V:8 bass 
V:1
"^Fanny Crosby\n(1820-1915)""^Little beam of rosy light""^Joseph Barnby\n(1838-96)" z4 | z12 | %2
w: ||
 z12 | z12 | z4 z4"^Soprano" G2 c2 | (e8 d4) | c8 z4 | z12 | z12 | z12 | z4 B4 (A2 G2) | %11
w: ||"~'Tis our|Fa\- *|ther."||||"'Tis our *|
 d4 c4 B2 A2 | !>!c4 B4 A2 !^!G2 | !^!c8 F2 E2 | D2 B2 G6 F2 | !fermata!F12 || F12 | F12 |] %18
w: Fa- ther, 'Tis our|Fa- ther, God a-|bove; He has|made us, He is|love."|A-|men.|
V:2
 x4 | x12 | x12 | x12 | x12 | x12 | x12 | x12 | x12 | x12 | x12 | x12 | x12 | x4 x4 x4 | x4 E6 F2 | %15
 F12 || D12 | C12 |] %18
V:3
"^Bass" C,2 C,2 | C,6 D,2 E,2 F,2 | D,8 D,2 D,2 | D,6 A,2 G,2 F,2 | E,8 z4 | z12 | %6
w: Lit- tle|beam of ro- sy|light, Who has|made you shine so|bright?||
w: Lit- tle|blos- som, sweet and|rare, Who has|made you bloom so|fair?||
w: Lit- tle|child, with smile so|bright, Who has|made your heart so|light?||
 z4 z4"^Tenor" C2 C2 | C6 C2 F2 E2 | D8 D2 D2 | D6 A,2 D2 C2 | B,8 z4 | z12 | z12 | z12 | %14
w: Lit- tle|bird, with gol- den|wing, Who has|taught you how to|sing?||||
w: Lit- tle|stream- let in the|dell, Who has|made you, can you|tell?||||
w: Who has|taught you how to|sing Lile the|mer- ry bird of|spring?||||
 z4 B,6 A,2 | A,12 || B,12 | [F,A,]12 |] %18
w: ||||
w: ||||
w: ||||
V:4
 x4 | x12 | x12 | x12 | x12 | x12 | x12 | x12 | x12 | x12 | x12 | x12 | x4 x4 x4 | x4 x4 x4 | %14
 z4 C,6 F,,2 | !fermata!F,,12 || B,,12 | F,,12 |] %18
V:5
"^Org.""^Slowly." C4 | F8 C4 | D8 D4 | D8 (D4- | G4 E4 G2 c2) | (e8 [Fd]4) | (c4 G4 E4) | %7
 F6 (C2 F2 E2) | (D4 F4 B4 | d8) ([A,^F]4 | G4 B4) (A2 G2) | (d4 c4) (B2 A2) | (c4 B4) A2 G2 | %13
 c8 !^!F2 !^!E2 | !^!D2 !^!B2 G6 F2 | F12 || F12 | F12 |] %18
V:6
 x4 | x8 x4 | (B,4 D4) C4 | B,8 x4 | x4 x4 x4 | G8 x4 | E8 C4 | C8 ^C4 | D8 D4 | [DA]8 D2 C2 | %10
 B,8 C4 | C8 D4 | D8 [CE]4 | [CF]8 ^C2 C2 | D2 D2 E6 F2 | !fermata!F12 || D12 | C12 |] %18
V:7
 C,4 | (C,6 D,2 E,2 F,2 | D,4 F,4) (^F,4 | [D,G,]6 A,2 G,2 F,2) | (E,4 G,4) C4 | (C4 A,4 =B,4) | %6
 C8 G,4 | F,8 G,4 | F,4 B,4 B,,4 | ^F,,8 D,,4 | z4 D,4 E,4 | F,8 ^F,4 | G,8 C,2 B,,2 | %13
 A,,8 G,2 G,2 | F,2 G,2 B,6 A,2 | [F,A,]12 || B,12 | [F,A,]12 |] %18
V:8
 x4 | F,,8 A,,4 | B,,8 D,4 | G,,8 B,,4 | C,8 E,4 | G,12 | C,8 _B,,4 | A,,8 A,,4 | B,,8 x4 | %9
 x4 x4 x4 | G,,8 B,,4 | A,,8 D,4 | G,,8 x4 | x4 x4 A,,2 A,,2 | B,,2 G,,2 C,6 [F,,F,]2 | %15
 !fermata!F,,12 || B,,12 | F,,12 |] %18

